public/assets/logos/flutter.svg

<svg width="73" height="89" viewBox="0 0 73 89" fill="none" xmlns="http://www.w3.org/2000/svg">
    <path d="M64.9998 42.0175H43.1771L24.0869 60.9878L34.9962 71.8262L64.9998 42.0175Z" fill="#54C5F8"/>
    <path d="M18.6303 55.5665L7.7168 44.724L43.1771 9.49408H64.9999L18.6303 55.5665Z" fill="#54C5F8"/>
    <path d="M34.9963 71.8262L43.1772 79.9539H65L45.9015 60.9878L34.9963 71.8262Z" fill="#01579B"/>
    <path d="M34.9963 71.8262L51.1788 66.2599L45.9015 60.9878L34.9963 71.8262Z" fill="url(#paint0_linear_15_15)"/>
    <path d="M34.994 50.1471L24.0852 60.985L34.994 71.8229L45.9027 60.985L34.994 50.1471Z" fill="#29B6F6"/>
    <path d="M64.9999 42.0175L45.9096 60.9836L64.9999 79.9539H43.1771L34.9962 71.8262L24.0828 60.9836L43.1771 42.0175H64.9999ZM43.1771 9.49408L7.7168 44.724L18.6303 55.5665L64.9999 9.49408H43.1771Z" fill="url(#paint1_radial_15_15)"/>
    <path d="M64.9999 42.0175L45.9096 60.9836L64.9999 79.9539H43.1771L34.9962 71.8262L24.0828 60.9836L43.1771 42.0175H64.9999ZM43.1771 9.49408L7.7168 44.724L18.6303 55.5665L64.9999 9.49408H43.1771Z" fill="url(#paint2_radial_15_15)"/>
    <defs>
        <linearGradient id="paint0_linear_15_15" x1="38.1795" y1="73.9193" x2="46.2521" y2="65.7927" gradientUnits="userSpaceOnUse">
            <stop stop-color="#1A237E" stop-opacity="0.4"/>
            <stop offset="1" stop-color="#1A237E" stop-opacity="0"/>
        </linearGradient>
        <radialGradient id="paint1_radial_15_15" cx="0" cy="0" r="1" gradientUnits="userSpaceOnUse" gradientTransform="translate(9.33024 14.2978) scale(86.7671 86.2033)">
            <stop stop-color="white" stop-opacity="0.1"/>
            <stop offset="1" stop-color="white" stop-opacity="0"/>
        </radialGradient>
        <radialGradient id="paint2_radial_15_15" cx="0" cy="0" r="1" gradientUnits="userSpaceOnUse" gradientTransform="translate(9.33024 14.2978) scale(86.7671 86.2033)">
            <stop stop-color="white" stop-opacity="0.1"/>
            <stop offset="1" stop-color="white" stop-opacity="0"/>
        </radialGradient>
    </defs>
</svg>

<svg width="73" height="89" viewBox="0 0 73 89" fill="none" xmlns="http://www.w3.org/2000/svg"><path d="M65 42.017H43.177l-19.09 18.97 10.91 10.84L65 42.016ZM18.63 55.566 7.717 44.724l35.46-35.23H65L18.63 55.566Z" fill="#54C5F8"/><path d="m34.996 71.826 8.181 8.128H65L45.901 60.988 34.996 71.826Z" fill="#01579B"/><path d="M34.996 71.826 51.18 66.26 45.9 60.988 34.996 71.826Z" fill="url(#a)"/><path d="M34.994 50.147 24.085 60.985l10.909 10.838 10.909-10.838-10.909-10.838Z" fill="#29B6F6"/><path d="M65 42.017 45.91 60.984 65 79.954H43.177l-8.18-8.128-10.914-10.842 19.094-18.967H65ZM43.177 9.494l-35.46 35.23L18.63 55.567 65 9.493H43.177Z" fill="url(#b)"/><path d="M65 42.017 45.91 60.984 65 79.954H43.177l-8.18-8.128-10.914-10.842 19.094-18.967H65ZM43.177 9.494l-35.46 35.23L18.63 55.567 65 9.493H43.177Z" fill="url(#c)"/><defs><radialGradient id="b" cx="0" cy="0" r="1" gradientUnits="userSpaceOnUse" gradientTransform="matrix(86.7671 0 0 86.2033 9.33 14.298)"><stop stop-color="#fff" stop-opacity=".1"/><stop offset="1" stop-color="#fff" stop-opacity="0"/></radialGradient><radialGradient id="c" cx="0" cy="0" r="1" gradientUnits="userSpaceOnUse" gradientTransform="matrix(86.7671 0 0 86.2033 9.33 14.298)"><stop stop-color="#fff" stop-opacity=".1"/><stop offset="1" stop-color="#fff" stop-opacity="0"/></radialGradient><linearGradient id="a" x1="38.179" y1="73.919" x2="46.252" y2="65.793" gradientUnits="userSpaceOnUse"><stop stop-color="#1A237E" stop-opacity=".4"/><stop offset="1" stop-color="#1A237E" stop-opacity="0"/></linearGradient></defs></svg>
